assets/img/braze_icons/code-square-02.svg

<svg fill="none" height="24" viewBox="0 0 24 24" width="24" xmlns="http://www.w3.org/2000/svg"><path clip-rule="evenodd" d="m17.8385 2h-11.67704c-.52713-.00002-.98192-.00003-1.35649.03057-.39534.0323-.78856.10362-1.16694.29641-.56449.28762-1.02343.74656-1.31105 1.31105-.19279.37838-.26411.7716-.29641 1.16694-.0306.37457-.03059.82932-.03057 1.35645v11.67708c-.00002.5272-.00003.982.03057 1.3565.0323.3954.10362.7886.29641 1.167.28762.5645.74656 1.0234 1.31105 1.311.37838.1928.7716.2641 1.16694.2964.37457.0306.82933.0306 1.35647.0306h11.67716c.5271 0 .9819 0 1.3564-.0306.3954-.0323.7886-.1036 1.167-.2964.5645-.2876 1.0234-.7465 1.311-1.311.1928-.3784.2641-.7716.2964-1.167.0306-.3745.0306-.8293.0306-1.3564v-11.67716c0-.52714 0-.9819-.0306-1.35647-.0323-.39534-.1036-.78856-.2964-1.16694-.2876-.56449-.7465-1.02343-1.311-1.31105-.3784-.19279-.7716-.26411-1.167-.29641-.3745-.0306-.8293-.03059-1.3565-.03057zm-7.1314 5.70711c.3905-.39053.3905-1.02369 0-1.41422-.3905-.39052-1.02368-.39052-1.41421 0l-3 3c-.39052.39053-.39052 1.02371 0 1.41421l3 3c.39053.3905 1.02371.3905 1.41421 0s.3905-1.0237 0-1.4142l-2.29289-2.2929zm4 2.58579c-.3905-.39053-1.0237-.39053-1.4142 0-.3905.3905-.3905 1.0237 0 1.4142l2.2929 2.2929-2.2929 2.2929c-.3905.3905-.3905 1.0237 0 1.4142s1.0237.3905 1.4142 0l3-3c.3905-.3905.3905-1.0237 0-1.4142z" fill="#801ed7" fill-rule="evenodd"/></svg>

<svg width="24" height="24" viewBox="0 0 24 24" fill="none" xmlns="http://www.w3.org/2000/svg">
<path fill-rule="evenodd" clip-rule="evenodd" d="M17.8385 2H6.16146C5.63433 1.99998 5.17954 1.99997 4.80497 2.03057C4.40963 2.06287 4.01641 2.13419 3.63803 2.32698C3.07354 2.6146 2.6146 3.07354 2.32698 3.63803C2.13419 4.01641 2.06287 4.40963 2.03057 4.80497C1.99997 5.17954 1.99998 5.63429 2 6.16142V17.8385C1.99998 18.3657 1.99997 18.8205 2.03057 19.195C2.06287 19.5904 2.13419 19.9836 2.32698 20.362C2.6146 20.9265 3.07354 21.3854 3.63803 21.673C4.01641 21.8658 4.40963 21.9371 4.80497 21.9694C5.17954 22 5.6343 22 6.16144 22H17.8386C18.3657 22 18.8205 22 19.195 21.9694C19.5904 21.9371 19.9836 21.8658 20.362 21.673C20.9265 21.3854 21.3854 20.9265 21.673 20.362C21.8658 19.9836 21.9371 19.5904 21.9694 19.195C22 18.8205 22 18.3657 22 17.8386V6.16144C22 5.6343 22 5.17954 21.9694 4.80497C21.9371 4.40963 21.8658 4.01641 21.673 3.63803C21.3854 3.07354 20.9265 2.6146 20.362 2.32698C19.9836 2.13419 19.5904 2.06287 19.195 2.03057C18.8205 1.99997 18.3657 1.99998 17.8385 2ZM10.7071 7.70711C11.0976 7.31658 11.0976 6.68342 10.7071 6.29289C10.3166 5.90237 9.68342 5.90237 9.29289 6.29289L6.29289 9.29289C5.90237 9.68342 5.90237 10.3166 6.29289 10.7071L9.29289 13.7071C9.68342 14.0976 10.3166 14.0976 10.7071 13.7071C11.0976 13.3166 11.0976 12.6834 10.7071 12.2929L8.41421 10L10.7071 7.70711ZM14.7071 10.2929C14.3166 9.90237 13.6834 9.90237 13.2929 10.2929C12.9024 10.6834 12.9024 11.3166 13.2929 11.7071L15.5858 14L13.2929 16.2929C12.9024 16.6834 12.9024 17.3166 13.2929 17.7071C13.6834 18.0976 14.3166 18.0976 14.7071 17.7071L17.7071 14.7071C18.0976 14.3166 18.0976 13.6834 17.7071 13.2929L14.7071 10.2929Z" fill="#801ED7"/>
</svg>
